archdroid-icon-theme/Archdroid-Cyan/apps/scalable/libreoffice-draw.svg

<svg fill="#00BCD4" height="48" viewBox="0 0 48 48" width="48" xmlns="http://www.w3.org/2000/svg"><path d="m12 4c-2.21 0-3.980469 1.79-3.980469 4l-.019531 32c0 2.21 1.770468 4 3.980469 4h24.019531c2.21 0 4-1.79 4-4v-24l-12-12zm14 3 11 11h-11zm4.662109 15.001953c.25625 0 .512032.097969.707032.292969l1.335937 1.335937c.395.39.395 1.019063 0 1.414063l-8.955078 8.955078-2.75-2.75 8.955078-8.955078c.195-.195.450781-.292969.707031-.292969zm-11.662109 10.998047c1.655 0 3 1.345 3 3 0 2.21-1.79 4-4 4-1.505 0-3.08-.78-4-2 .845 0 2-.69 2-2 0-1.655 1.345-3 3-3z" fill="#c99c00"/></svg>

<svg fill="#00BCD4" height="48" version="1.1" viewBox="0 0 48 48" width="48" xmlns="http://www.w3.org/2000/svg"><path d="M12 4C9.79 4 8.019531 5.79 8.019531 8L8 40C8 42.21 9.770468 44 11.980469 44L36 44C38.21 44 40 42.21 40 40L40 16 28 4 12 4zM26 7L37 18 26 18 26 7zM30.662109 22.001953C30.918359 22.001953 31.174141 22.099922 31.369141 22.294922L32.705078 23.630859C33.100078 24.020859 33.100078 24.649922 32.705078 25.044922L23.75 34 21 31.25 29.955078 22.294922C30.150078 22.099922 30.405859 22.001953 30.662109 22.001953zM19 33C20.655 33 22 34.345 22 36 22 38.21 20.21 40 18 40 16.495 40 14.92 39.22 14 38 14.845 38 16 37.31 16 36 16 34.345 17.345 33 19 33z" fill="#c99c00"/></svg>
